icons-rebrand/svg/bluetooth-container-muted-regular.svg

<svg width="32" height="32" viewBox="0 0 32 32" fill="none" xmlns="http://www.w3.org/2000/svg">
<path d="M15.2498 18.4291V23.9991C15.2496 24.1319 15.2847 24.2624 15.3515 24.3772C15.4183 24.492 15.5143 24.587 15.6299 24.6525C15.7454 24.718 15.8763 24.7516 16.0091 24.75C16.1419 24.7483 16.2719 24.7114 16.3858 24.6431L19.5598 22.7391L18.4668 21.6451L16.7498 22.6751V19.9301L15.2498 18.4301V18.4291ZM11.5298 21.5301L14.9398 18.1201L13.8798 17.0591L10.4698 20.4691C10.364 20.5736 10.2918 20.7072 10.2624 20.853C10.2329 20.9987 10.2476 21.1499 10.3045 21.2873C10.3613 21.4246 10.4579 21.5419 10.5817 21.6242C10.7055 21.7064 10.8511 21.7499 10.9998 21.7491C11.1986 21.7489 11.3892 21.6698 11.5298 21.5291V21.5301Z" fill="#0F0F0F"/>
<path d="M16 28.25C10.348 28.25 5.75003 22.754 5.75003 16C5.74187 13.9896 6.16398 12.0008 6.98803 10.167L5.87603 9.055C4.79983 11.2112 4.24299 13.5892 4.25003 15.999C4.25003 23.581 9.52103 29.749 16 29.749C18.7947 29.719 21.467 28.5984 23.447 26.626L22.387 25.565C20.6879 27.2559 18.397 28.2186 16 28.249V28.25ZM28.53 27.47L25.352 24.29C26.9342 21.8158 27.767 18.9368 27.75 16C27.75 8.418 22.48 2.25 16 2.25C14.3639 2.27977 12.7551 2.67507 11.2915 3.40697C9.82783 4.13887 8.54641 5.18884 7.54103 6.48L4.53103 3.47C4.38926 3.3392 4.20254 3.26805 4.00967 3.27134C3.81681 3.27463 3.63262 3.3521 3.49539 3.48766C3.35816 3.62322 3.27844 3.80644 3.27278 3.99925C3.26713 4.19206 3.33598 4.37963 3.46503 4.523L27.477 28.535C27.6184 28.6746 27.8094 28.7524 28.0081 28.7512C28.2068 28.75 28.3969 28.6699 28.5365 28.5285C28.6762 28.3871 28.7539 28.1961 28.7527 27.9974C28.7515 27.7987 28.6714 27.6086 28.53 27.469V27.47ZM17.06 16L21.53 11.53C21.6106 11.4493 21.6717 11.3514 21.7088 11.2436C21.7458 11.1359 21.7579 11.0211 21.744 10.9079C21.7301 10.7948 21.6907 10.6863 21.6287 10.5907C21.5666 10.4951 21.4837 10.4148 21.386 10.356L16.386 7.356C16.2722 7.28764 16.1422 7.25075 16.0094 7.2491C15.8766 7.24745 15.7457 7.28109 15.6302 7.34659C15.5146 7.41209 15.4185 7.5071 15.3517 7.6219C15.285 7.7367 15.2499 7.86718 15.25 8V14.189L8.60303 7.542C9.46857 6.39129 10.5841 5.4521 11.8654 4.79524C13.1467 4.13837 14.5605 3.78098 16 3.75C21.652 3.75 26.25 9.245 26.25 16C26.265 18.539 25.58 21.033 24.27 23.208L17.06 16ZM16.75 14.189V9.324L19.79 11.148L16.75 14.189Z" fill="#0F0F0F"/>
</svg>

<svg width="32" height="32" viewBox="0 0 32 32" fill="none" xmlns="http://www.w3.org/2000/svg"><path d="M15.25 18.429v5.57a.75.75 0 0 0 1.136.644l3.174-1.904-1.093-1.094-1.717 1.03V19.93l-1.5-1.5zM11.53 21.53l3.41-3.41-1.06-1.061-3.41 3.41a.748.748 0 0 0 .53 1.28.75.75 0 0 0 .53-.22z" fill="#0F0F0F"/><path d="M16 28.25c-5.652 0-10.25-5.496-10.25-12.25a14.091 14.091 0 0 1 1.238-5.833L5.876 9.055a15.448 15.448 0 0 0-1.626 6.944c0 7.582 5.271 13.75 11.75 13.75a10.715 10.715 0 0 0 7.447-3.123l-1.06-1.061A9.22 9.22 0 0 1 16 28.249zM28.53 27.47l-3.178-3.18A15.225 15.225 0 0 0 27.75 16c0-7.582-5.27-13.75-11.75-13.75a10.974 10.974 0 0 0-8.459 4.23l-3.01-3.01a.75.75 0 0 0-1.066 1.053l24.012 24.012a.749.749 0 0 0 1.053-1.066zM17.06 16l4.47-4.47a.751.751 0 0 0-.144-1.174l-5-3A.75.75 0 0 0 15.25 8v6.189L8.603 7.542A9.512 9.512 0 0 1 16 3.75c5.652 0 10.25 5.495 10.25 12.25.015 2.539-.67 5.033-1.98 7.208L17.06 16zm-.31-1.811V9.324l3.04 1.824-3.04 3.041z" fill="#0F0F0F"/></svg>
